X:1
%
T:Fort William
M:2/4
L:1/8
R:Country Dance Tune
B:John Walsh – Caledonian Country Dances vol. II  (c. 1737, No. 354, p. 94)
Z:AK/Fiddler’s Companion
K:A
A2 (A/B/c)|B2 (B/c/d)|cecA BGFE|
A2 (A/B/c)|B2 (B/c/d)|ceEG AECA,:|
|:cde=g|fdcB|BcdB|ecBA|
GB Ed|cde=g|fdcB|{B}A4:|]

